static/images/icon-target.svg

<svg xmlns="http://www.w3.org/2000/svg" width="24" height="24" viewBox="0 0 24 24">
    <path fill="currentColor" d="M12 2C6.477 2 2 6.477 2 12c0 5.523 4.477 10 10 10s10-4.477 10-10c0-5.523-4.477-10-10-10zm0 18c-4.418 0-8-3.582-8-8s3.582-8 8-8 8 3.582 8 8-3.582 8-8 8zm0-14c-3.314 0-6 2.686-6 6s2.686 6 6 6 6-2.686 6-6-2.686-6-6-6zm0 10c-2.209 0-4-1.791-4-4s1.791-4 4-4 4 1.791 4 4-1.791 4-4 4zm0-6c-1.105 0-2 .895-2 2s.895 2 2 2 2-.895 2-2-.895-2-2-2z"/>
</svg>

<svg xmlns="http://www.w3.org/2000/svg" width="24" height="24" viewBox="0 0 24 24">
    <path fill="currentColor" d="M12,2A10,10 0 0,0 2,12A10,10 0 0,0 12,22A10,10 0 0,0 22,12A10,10 0 0,0 12,2M12,4A8,8 0 0,1 20,12A8,8 0 0,1 12,20A8,8 0 0,1 4,12A8,8 0 0,1 12,4M12,6A6,6 0 0,0 6,12A6,6 0 0,0 12,18A6,6 0 0,0 18,12A6,6 0 0,0 12,6M12,8A4,4 0 0,1 16,12A4,4 0 0,1 12,16A4,4 0 0,1 8,12A4,4 0 0,1 12,8M12,10A2,2 0 0,0 10,12A2,2 0 0,0 12,14A2,2 0 0,0 14,12A2,2 0 0,0 12,10Z"/>
</svg>
